static/images/sophiebluel/icons/bin.svg

<svg width="9" height="9" viewBox="0 0 9 9" fill="none" xmlns="http://www.w3.org/2000/svg">
<path fill-rule="evenodd" clip-rule="evenodd" d="M6.6 1.8V0.9C6.6 0.402944 6.19704 0 5.7 0H3.3C2.80294 0 2.4 0.402944 2.4 0.9V1.8H0V2.4H0.6V8.1C0.6 8.59704 1.00294 9 1.5 9H7.5C7.99704 9 8.4 8.59704 8.4 8.1V2.4H9V1.8H6.6ZM3 0.9C3 0.734316 3.13432 0.6 3.3 0.6H5.7C5.86568 0.6 6 0.734316 6 0.9V1.8H3V0.9ZM4.2 4.2V7.2H4.8V4.2H4.2ZM2.4 7.2V5.4H3V7.2H2.4ZM6 5.4V7.2H6.6V5.4H6Z" fill="white"/>
</svg>

<svg width="9" height="9" fill="none" xmlns="http://www.w3.org/2000/svg"><path fill-rule="evenodd" clip-rule="evenodd" d="M6.6 1.8V.9a.9.9 0 0 0-.9-.9H3.3a.9.9 0 0 0-.9.9v.9H0v.6h.6v5.7a.9.9 0 0 0 .9.9h6a.9.9 0 0 0 .9-.9V2.4H9v-.6H6.6ZM3 .9a.3.3 0 0 1 .3-.3h2.4a.3.3 0 0 1 .3.3v.9H3V.9Zm1.2 3.3v3h.6v-3h-.6Zm-1.8 3V5.4H3v1.8h-.6ZM6 5.4v1.8h.6V5.4H6Z" fill="#fff"/></svg>
